svgs/sharp-regular/router.svg

<svg xmlns="http://www.w3.org/2000/svg" viewBox="0 0 576 512"><!--! Font Awesome Pro 6.6.0 by @fontawesome - https://fontawesome.com License - https://fontawesome.com/license (Commercial License) Copyright 2024 Fonticons, Inc. --><path d="M352 48c58.8 0 112.5 21.8 153.4 57.9l31.7-36C487.8 26.4 422.9 0 352 0S216.2 26.4 166.9 69.9l31.7 36C239.5 69.8 293.2 48 352 48zm24 200l0-24-48 0 0 24 0 56L48 304 0 304l0 48L0 464l0 48 48 0 480 0 48 0 0-48 0-112 0-48-48 0-152 0 0-56zM48 352l480 0 0 112L48 464l0-112zm160 32l-48 0 0 48 48 0 0-48zM80 384l0 48 48 0 0-48-48 0zM276.5 186.7C297.1 170 323.4 160 352 160s54.9 10 75.5 26.7l30.2-37.3C428.8 126 392 112 352 112s-76.8 14-105.7 37.4l30.2 37.3z"/></svg>

<svg xmlns="http://www.w3.org/2000/svg" viewBox="0 0 576 512"><!--! Font Awesome Pro 6.4.2 by @fontawesome - https://fontawesome.com License - https://fontawesome.com/license (Commercial License) Copyright 2023 Fonticons, Inc. --><path d="M352 48c58.8 0 112.5 21.8 153.4 57.9l31.7-36C487.8 26.4 422.9 0 352 0S216.2 26.4 166.9 69.9l31.7 36C239.5 69.8 293.2 48 352 48zm24 200V224H328v24 56H48 0v48V464v48H48 528h48V464 352 304H528 376V248zM48 352H528V464H48V352zm160 32H160v48h48V384zM80 384v48h48V384H80zM276.5 186.7C297.1 170 323.4 160 352 160s54.9 10 75.5 26.7l30.2-37.3C428.8 126 392 112 352 112s-76.8 14-105.7 37.4l30.2 37.3z"/></svg>
